src/actions/24/format-text-strikethrough.svg

<svg xmlns="http://www.w3.org/2000/svg" viewBox="0 0 24 24">
  <defs id="defs3051">
    <style type="text/css" id="current-color-scheme">
      .ColorScheme-Text {
        color:#363636;
      }
      </style>
  </defs>
 <path style="fill:currentColor;fill-opacity:1;stroke:none" 
     d="M 12.367188 4 C 9.1558624 3.9704971 5.2894531 6.1569696 7.4394531 11.082031 L 15 11.082031 C 2.999998 8.082032 13.000924 1.0820314 15.041016 9.0820312 L 16 9.0820312 L 16 6.3339844 C 15.984965 4.8339844 14.293979 4.0177018 12.367188 4 z M 4 12 L 4 13 L 20 13 L 20 12 L 4 12 z M 13 13.998047 C 18.286623 19.241347 10.366687 20.922747 8 14.998047 L 7 14.998047 L 7 17.998047 C 7.1910979 20.513847 19 21.998047 17 13.998047 L 13 13.998047 z "
     class="ColorScheme-Text"
     />
</svg>

<svg xmlns="http://www.w3.org/2000/svg" viewBox="0 0 24 24">
    <path d="M12.367 4C9.156 3.97 5.29 6.157 7.44 11.082H15c-12-3-2-10 .041-2H16V6.334c-.015-1.5-1.706-2.316-3.633-2.334zM4 12v1h16v-1H4zm9 1.998c5.287 5.243-2.633 6.925-5 1H7v3c.191 2.516 12 4 10-4h-4z" style="fill:currentColor;fill-opacity:1;stroke:none;color:#050505;opacity:.7"/>
</svg>
